X:1080
T: Morning Dew
S: "Roche Collection of Traditional Irish Music" [III/33/107]
L: 1/8
M: 2/4
R: polka %(or march or hornpipe)
K: Ador
EA AB | c2 B/c/B/A/ | BG GB | dB AG |
EA AB | c2 B/c/B/A/ | Bc/d/ ed |1 eA AG :|2 eA AA ||
Be ed | eA AB | de dc | BG GA |
Be ed | ef ge | dB GB | A2 A2 |
Be ed | eA AB | de dc | BG EF |
GA Bd | ef ge | dB GB | A2 A2 |]
